src/assets/images/realtime/realtimekit/web/components-gallery/rtk-image-viewer.svg

<svg width="400" height="300" viewBox="0 0 400 300" fill="none" xmlns="http://www.w3.org/2000/svg" xmlns:xlink="http://www.w3.org/1999/xlink">
<g clip-path="url(#clip0_9781_45975)">
<rect width="400" height="300" fill="white"/>
<g style="mix-blend-mode:darken">
<path d="M0 4.21053C0 1.88512 1.88512 0 4.21053 0H395.789C398.115 0 400 1.88512 400 4.21053V295.789C400 298.115 398.115 300 395.789 300H4.21054C1.88513 300 0 298.115 0 295.789V4.21053Z" fill="url(#pattern0_9781_45975)"/>
</g>
<rect x="20" y="67" width="360.838" height="307.199" rx="5.63972" fill="#1E1E1E"/>
<rect x="246.914" y="78" width="86.0681" height="25.3787" rx="2.81986" fill="#2160FD"/>
<path d="M261.366 94.2145H267.71C268.002 94.2145 268.239 94.4512 268.239 94.7432C268.239 95.0109 268.04 95.2321 267.782 95.2671L267.71 95.2719H261.366C261.074 95.2719 260.837 95.0352 260.837 94.7432C260.837 94.4755 261.036 94.2543 261.294 94.2193L261.366 94.2145H267.71H261.366ZM264.466 85.7597L264.538 85.7549C264.806 85.7549 265.027 85.9538 265.062 86.2119L265.067 86.2836V91.7034L266.657 90.1145C266.844 89.9268 267.138 89.9097 267.345 90.0633L267.404 90.1145C267.592 90.3022 267.609 90.5959 267.455 90.8029L267.404 90.8622L264.912 93.3546C264.724 93.5423 264.43 93.5594 264.223 93.4058L264.164 93.3546L261.672 90.8622C261.465 90.6557 261.465 90.321 261.672 90.1145C261.859 89.9268 262.153 89.9097 262.36 90.0633L262.419 90.1145L264.009 91.7048V86.2836C264.009 86.0159 264.208 85.7947 264.466 85.7597L264.538 85.7549L264.466 85.7597Z" fill="white"/>
<path d="M276.815 94.6895H274.491V87.5116H276.888C277.592 87.5116 278.196 87.6553 278.7 87.9427C279.205 88.2278 279.592 88.6378 279.861 89.1729C280.132 89.7056 280.267 90.3447 280.267 91.09C280.267 91.8377 280.13 92.4803 279.857 93.0177C279.586 93.5551 279.193 93.9686 278.679 94.2584C278.165 94.5458 277.544 94.6895 276.815 94.6895ZM275.574 93.7432H276.755C277.302 93.7432 277.757 93.6404 278.119 93.4347C278.481 93.2268 278.752 92.9265 278.932 92.534C279.112 92.1391 279.202 91.6578 279.202 91.09C279.202 90.5269 279.112 90.0491 278.932 89.6566C278.754 89.264 278.489 88.9661 278.136 88.7628C277.783 88.5596 277.345 88.4579 276.822 88.4579H275.574V93.7432ZM283.797 94.7981C283.293 94.7981 282.852 94.6824 282.476 94.4511C282.1 94.2198 281.808 93.8962 281.6 93.4803C281.392 93.0644 281.288 92.5784 281.288 92.0223C281.288 91.4639 281.392 90.9755 281.6 90.5573C281.808 90.1391 282.1 89.8143 282.476 89.583C282.852 89.3517 283.293 89.236 283.797 89.236C284.302 89.236 284.742 89.3517 285.119 89.583C285.495 89.8143 285.787 90.1391 285.995 90.5573C286.203 90.9755 286.307 91.4639 286.307 92.0223C286.307 92.5784 286.203 93.0644 285.995 93.4803C285.787 93.8962 285.495 94.2198 285.119 94.4511C284.742 94.6824 284.302 94.7981 283.797 94.7981ZM283.801 93.9184C284.128 93.9184 284.399 93.8319 284.614 93.659C284.829 93.4861 284.988 93.256 285.091 92.9686C285.196 92.6812 285.248 92.3646 285.248 92.0188C285.248 91.6753 285.196 91.3599 285.091 91.0725C284.988 90.7828 284.829 90.5503 284.614 90.3751C284.399 90.1998 284.128 90.1122 283.801 90.1122C283.471 90.1122 283.198 90.1998 282.981 90.3751C282.766 90.5503 282.606 90.7828 282.501 91.0725C282.398 91.3599 282.346 91.6753 282.346 92.0188C282.346 92.3646 282.398 92.6812 282.501 92.9686C282.606 93.256 282.766 93.4861 282.981 93.659C283.198 93.8319 283.471 93.9184 283.801 93.9184ZM288.48 94.6895L286.896 89.3061H287.979L289.033 93.2595H289.086L290.145 89.3061H291.227L292.279 93.242H292.331L293.379 89.3061H294.462L292.882 94.6895H291.813L290.719 90.8026H290.639L289.545 94.6895H288.48ZM296.505 91.4931V94.6895H295.457V89.3061H296.463V90.1823H296.529C296.653 89.8972 296.847 89.6682 297.111 89.4953C297.378 89.3224 297.713 89.236 298.117 89.236C298.484 89.236 298.805 89.3131 299.081 89.4673C299.357 89.6192 299.57 89.8458 299.722 90.1472C299.874 90.4487 299.95 90.8213 299.95 91.2653V94.6895H298.902V91.3914C298.902 91.0012 298.8 90.6963 298.597 90.4767C298.394 90.2547 298.115 90.1437 297.76 90.1437C297.517 90.1437 297.3 90.1963 297.111 90.3014C296.924 90.4066 296.776 90.5608 296.666 90.7641C296.559 90.965 296.505 91.208 296.505 91.4931ZM302.403 87.5116V94.6895H301.355V87.5116H302.403ZM306.081 94.7981C305.576 94.7981 305.136 94.6824 304.76 94.4511C304.383 94.2198 304.091 93.8962 303.883 93.4803C303.675 93.0644 303.571 92.5784 303.571 92.0223C303.571 91.4639 303.675 90.9755 303.883 90.5573C304.091 90.1391 304.383 89.8143 304.76 89.583C305.136 89.3517 305.576 89.236 306.081 89.236C306.586 89.236 307.026 89.3517 307.402 89.583C307.778 89.8143 308.07 90.1391 308.278 90.5573C308.486 90.9755 308.59 91.4639 308.59 92.0223C308.59 92.5784 308.486 93.0644 308.278 93.4803C308.07 93.8962 307.778 94.2198 307.402 94.4511C307.026 94.6824 306.586 94.7981 306.081 94.7981ZM306.084 93.9184C306.411 93.9184 306.682 93.8319 306.897 93.659C307.112 93.4861 307.271 93.256 307.374 92.9686C307.479 92.6812 307.532 92.3646 307.532 92.0188C307.532 91.6753 307.479 91.3599 307.374 91.0725C307.271 90.7828 307.112 90.5503 306.897 90.3751C306.682 90.1998 306.411 90.1122 306.084 90.1122C305.755 90.1122 305.481 90.1998 305.264 90.3751C305.049 90.5503 304.889 90.7828 304.784 91.0725C304.681 91.3599 304.63 91.6753 304.63 92.0188C304.63 92.3646 304.681 92.6812 304.784 92.9686C304.889 93.256 305.049 93.4861 305.264 93.659C305.481 93.8319 305.755 93.9184 306.084 93.9184ZM311.327 94.8086C310.985 94.8086 310.677 94.7455 310.401 94.6194C310.126 94.4908 309.907 94.3051 309.746 94.0621C309.587 93.8191 309.508 93.5212 309.508 93.1684C309.508 92.8646 309.566 92.6146 309.683 92.4183C309.8 92.2221 309.957 92.0667 310.156 91.9522C310.355 91.8377 310.577 91.7513 310.822 91.6929C311.067 91.6344 311.317 91.59 311.572 91.5597C311.894 91.5223 312.156 91.4919 312.357 91.4685C312.558 91.4428 312.704 91.402 312.795 91.3459C312.886 91.2898 312.932 91.1987 312.932 91.0725V91.048C312.932 90.7419 312.845 90.5047 312.672 90.3365C312.502 90.1683 312.247 90.0842 311.908 90.0842C311.556 90.0842 311.278 90.1624 311.074 90.319C310.873 90.4732 310.734 90.6449 310.657 90.8342L309.672 90.6099C309.789 90.2828 309.96 90.0187 310.184 89.8178C310.411 89.6145 310.671 89.4673 310.966 89.3762C311.26 89.2827 311.57 89.236 311.894 89.236C312.109 89.236 312.337 89.2617 312.578 89.3131C312.821 89.3622 313.047 89.4533 313.258 89.5865C313.47 89.7197 313.644 89.9101 313.78 90.1578C313.915 90.4031 313.983 90.722 313.983 91.1146V94.6895H312.96V93.9534H312.918C312.85 94.089 312.748 94.2221 312.613 94.353C312.477 94.4838 312.303 94.5925 312.091 94.6789C311.878 94.7654 311.623 94.8086 311.327 94.8086ZM311.554 93.9675C311.844 93.9675 312.092 93.9102 312.297 93.7957C312.505 93.6812 312.663 93.5317 312.771 93.3471C312.88 93.1602 312.935 92.9604 312.935 92.7478V92.0538C312.898 92.0912 312.825 92.1263 312.718 92.159C312.613 92.1894 312.493 92.2162 312.357 92.2396C312.222 92.2606 312.089 92.2805 311.961 92.2992C311.832 92.3155 311.725 92.3296 311.639 92.3412C311.435 92.3669 311.25 92.4102 311.081 92.4709C310.915 92.5317 310.782 92.6193 310.682 92.7338C310.584 92.8459 310.535 92.9955 310.535 93.1824C310.535 93.4417 310.63 93.638 310.822 93.7712C311.014 93.902 311.258 93.9675 311.554 93.9675ZM317.394 94.7946C316.96 94.7946 316.572 94.6836 316.231 94.4616C315.892 94.2373 315.626 93.9184 315.432 93.5048C315.24 93.0889 315.144 92.5901 315.144 92.0083C315.144 91.4265 315.241 90.9288 315.435 90.5152C315.631 90.1017 315.9 89.7851 316.241 89.5654C316.582 89.3458 316.969 89.236 317.401 89.236C317.735 89.236 318.004 89.2921 318.207 89.4042C318.413 89.514 318.572 89.6425 318.684 89.7897C318.799 89.937 318.887 90.0666 318.95 90.1788H319.014V87.5116H320.061V94.6895H319.038V93.8518H318.95C318.887 93.9663 318.796 94.0971 318.677 94.2443C318.56 94.3915 318.399 94.5201 318.193 94.6299C317.988 94.7397 317.721 94.7946 317.394 94.7946ZM317.626 93.9009C317.927 93.9009 318.182 93.8214 318.39 93.6625C318.6 93.5013 318.759 93.2782 318.866 92.9931C318.976 92.7081 319.031 92.3763 319.031 91.9978C319.031 91.6239 318.977 91.2968 318.87 91.0164C318.762 90.736 318.605 90.5176 318.397 90.361C318.189 90.2045 317.932 90.1262 317.626 90.1262C317.31 90.1262 317.047 90.208 316.837 90.3715C316.627 90.5351 316.468 90.7582 316.36 91.041C316.255 91.3237 316.203 91.6426 316.203 91.9978C316.203 92.3576 316.256 92.6812 316.364 92.9686C316.471 93.256 316.63 93.4838 316.841 93.652C317.053 93.8179 317.315 93.9009 317.626 93.9009Z" fill="#F5F5F7"/>
<rect x="338.622" y="78" width="25.3787" height="25.3787" rx="2.81986" fill="#393939"/>
<path d="M346.855 91.3447H350.028C350.295 91.3447 350.516 91.5436 350.551 91.8016L350.556 91.8734V95.0457C350.556 95.3377 350.32 95.5744 350.028 95.5744C349.76 95.5744 349.539 95.3755 349.504 95.1175L349.499 95.0457V93.1494L346.348 96.3008C346.141 96.5073 345.807 96.5073 345.6 96.3008C345.412 96.1131 345.395 95.8193 345.549 95.6124L345.6 95.5531L348.75 92.4021H346.855C346.588 92.4021 346.366 92.2032 346.331 91.9451L346.327 91.8734C346.327 91.6057 346.525 91.3845 346.783 91.3495L346.855 91.3447H350.028H346.855ZM356.922 84.9786C357.11 85.1663 357.127 85.46 356.974 85.667L356.922 85.7263L353.418 89.2298H355.667C355.935 89.2298 356.156 89.4287 356.191 89.6867L356.196 89.7585C356.196 90.0262 355.997 90.2474 355.739 90.2824L355.667 90.2872H352.142C351.875 90.2872 351.654 90.0883 351.619 89.8302L351.614 89.7585V86.2337C351.614 85.9417 351.85 85.7049 352.142 85.7049C352.41 85.7049 352.631 85.9038 352.666 86.1619L352.671 86.2337V88.4811L356.175 84.9786C356.381 84.7721 356.716 84.7721 356.922 84.9786Z" fill="white"/>
<rect x="37.0002" y="87" width="93" height="8" rx="4" fill="#3C3C3C"/>
<g clip-path="url(#clip1_9781_45975)">
<path d="M364 114H38.0002V367.015H364V114Z" fill="#262626"/>
<path opacity="0.675" d="M227.89 235.038L165.902 297.026L137.002 268.125L61.0979 344.029H118.899H212.905H336.881L227.89 235.038Z" fill="white"/>
<path opacity="0.675" d="M118.77 211.173C130.538 211.173 140.078 201.634 140.078 189.866C140.078 178.098 130.538 168.558 118.77 168.558C107.002 168.558 97.4624 178.098 97.4624 189.866C97.4624 201.634 107.002 211.173 118.77 211.173Z" fill="white"/>
</g>
</g>
<defs>
<pattern id="pattern0_9781_45975" patternContentUnits="objectBoundingBox" width="0.0368421" height="0.0491228">
<use xlink:href="#image0_9781_45975" transform="scale(0.000657895 0.000877193)"/>
</pattern>
<clipPath id="clip0_9781_45975">
<rect width="400" height="300" fill="white"/>
</clipPath>
<clipPath id="clip1_9781_45975">
<rect x="38.0002" y="114" width="326" height="253.015" rx="14.4793" fill="white"/>
</clipPath>
<image id="image0_9781_45975" width="56" height="56" preserveAspectRatio="none" xlink:href="data:image/png;base64,iVBORw0KGgoAAAANSUhEUgAAADgAAAA4CAYAAACohjseAAAACXBIWXMAACxLAAAsSwGlPZapAAAAAXNSR0IArs4c6QAAAARnQU1BAACxjwv8YQUAAADdSURBVHgB7dmxDoMgFIXhCzEmbsbF9388F8PGAKHt6dSksvXaHHK+EQbzB0Sj4fFiA4s2OAWyUyA7BbJTIDsFslMgOwWyUyA7BbJTIDsFspvsBrVWO8/TSinWWrNlWWxdV5sm/8sH7w+/iDuO4x32KcZo+767R7pv0ZTSVxxgDKvqzT0w59ydw5b15h4YQujOXa3sr7kHzvPcncNh4809cNu2y1XEGE5Sb+GO32c4SXHY4H5EGFYV4UM8Jv5Nr2rsFMhOgewUyE6B7BTIToHsFMhOgewUyE6B7IYPfALcB0NZ5j6jXgAAAABJRU5ErkJggg=="/>
</defs>
</svg>

<svg xmlns="http://www.w3.org/2000/svg" xmlns:xlink="http://www.w3.org/1999/xlink" width="400" height="300" fill="none" viewBox="0 0 400 300"><g clip-path="url(#clip0_9781_45975)"><path fill="#fff" d="M0 0h400v300H0z"/><path fill="url(#pattern0_9781_45975)" d="M0 4.21A4.21 4.21 0 0 1 4.21 0h391.58A4.21 4.21 0 0 1 400 4.21v291.58a4.21 4.21 0 0 1-4.211 4.211H4.211A4.21 4.21 0 0 1 0 295.789z" style="mix-blend-mode:darken"/><rect width="360.838" height="307.199" x="20" y="67" fill="#1e1e1e" rx="5.64"/><rect width="86.068" height="25.379" x="246.914" y="78" fill="#2160fd" rx="2.82"/><path fill="#fff" d="M261.366 94.215h6.344a.529.529 0 0 1 .072 1.052l-.072.005h-6.344a.529.529 0 0 1-.072-1.053zh6.344zm3.1-8.455.072-.005c.268 0 .489.199.524.457l.005.072v5.42l1.59-1.59a.53.53 0 0 1 .688-.05l.059.05a.53.53 0 0 1 .051.689l-.051.06-2.492 2.492a.53.53 0 0 1-.689.05l-.059-.05-2.492-2.493a.528.528 0 0 1 .688-.799l.059.052 1.59 1.59v-5.421c0-.268.199-.49.457-.524l.072-.005z"/><path fill="#f5f5f7" d="M276.815 94.69h-2.324v-7.178h2.397q1.056 0 1.812.43.757.429 1.161 1.23.406.8.406 1.918 0 1.121-.41 1.928a2.9 2.9 0 0 1-1.178 1.24q-.77.431-1.864.431m-1.241-.947h1.181q.82 0 1.364-.308.543-.312.813-.901.27-.592.27-1.444 0-.844-.27-1.433a1.9 1.9 0 0 0-.796-.894q-.53-.305-1.314-.305h-1.248zm8.223 1.055q-.757 0-1.321-.347a2.34 2.34 0 0 1-.876-.97q-.312-.625-.312-1.459 0-.838.312-1.465t.876-.974 1.321-.347 1.322.347.876.974.312 1.465q0 .834-.312 1.458t-.876.971q-.565.347-1.322.347m.004-.88q.49 0 .813-.259.322-.26.477-.69a2.8 2.8 0 0 0 .157-.95q0-.516-.157-.947a1.54 1.54 0 0 0-.477-.697q-.322-.263-.813-.263-.495 0-.82.263a1.56 1.56 0 0 0-.48.698 2.8 2.8 0 0 0-.155.946q0 .519.155.95.158.43.48.69.325.26.82.26m4.679.771-1.584-5.383h1.083l1.054 3.954h.053l1.059-3.954h1.082l1.052 3.936h.052l1.048-3.936h1.083l-1.58 5.383h-1.069l-1.094-3.886h-.08l-1.094 3.886zm8.025-3.196v3.197h-1.048v-5.384h1.006v.876h.066a1.54 1.54 0 0 1 .582-.687q.4-.26 1.006-.259.55 0 .964.231.413.228.641.68t.228 1.118v3.424h-1.048v-3.298q0-.585-.305-.914-.305-.333-.837-.333-.365 0-.649.157-.28.159-.445.463-.16.301-.161.73m5.898-3.981v7.177h-1.048v-7.177zm3.678 7.286q-.757 0-1.321-.347a2.34 2.34 0 0 1-.877-.97q-.312-.625-.312-1.459 0-.838.312-1.465t.877-.974 1.321-.347 1.321.347.876.974.312 1.465q0 .834-.312 1.458t-.876.971-1.321.347m.003-.88q.49 0 .813-.259.322-.26.477-.69a2.8 2.8 0 0 0 .158-.95q0-.516-.158-.947a1.54 1.54 0 0 0-.477-.697q-.322-.263-.813-.263-.494 0-.82.263a1.56 1.56 0 0 0-.48.698 2.8 2.8 0 0 0-.154.946q0 .519.154.95.158.43.48.69.326.26.82.26m5.243.89a2.2 2.2 0 0 1-.926-.189 1.56 1.56 0 0 1-.655-.557q-.238-.364-.238-.894 0-.455.175-.75.175-.294.473-.466.299-.17.666-.26.368-.087.75-.132l.785-.091q.302-.039.438-.123.137-.084.137-.273v-.025q0-.459-.26-.712-.255-.252-.764-.252-.528 0-.834.235-.302.231-.417.515l-.985-.224a1.9 1.9 0 0 1 .512-.792q.34-.304.782-.442.442-.14.928-.14.322 0 .684.077.364.074.68.273.318.2.522.572.203.367.203.957v3.575h-1.023v-.737h-.042q-.102.204-.305.4t-.522.326q-.32.13-.764.13m.227-.84q.435 0 .743-.172.312-.172.474-.449a1.17 1.17 0 0 0 .164-.6v-.693a.55.55 0 0 1-.217.105q-.157.045-.361.08-.203.032-.396.06l-.322.042a2.6 2.6 0 0 0-.558.13.95.95 0 0 0-.399.263.66.66 0 0 0-.147.448q0 .39.287.59.288.195.732.195m5.84.827q-.651 0-1.163-.333a2.27 2.27 0 0 1-.799-.957q-.288-.624-.288-1.497t.291-1.493q.294-.62.806-.95t1.16-.329q.501 0 .806.168.309.165.477.386.172.22.266.389h.064v-2.667h1.047v7.177h-1.023v-.837h-.088a3 3 0 0 1-.273.392 1.5 1.5 0 0 1-.484.386q-.308.165-.799.165m.232-.894q.452 0 .764-.239.315-.24.476-.669.165-.428.165-.995 0-.56-.161-.982a1.45 1.45 0 0 0-.473-.655q-.312-.235-.771-.235-.474 0-.789.245-.315.246-.477.67a2.7 2.7 0 0 0-.157.957q0 .54.161.97.16.432.477.684.318.249.785.249"/><rect width="25.379" height="25.379" x="338.622" y="78" fill="#393939" rx="2.82"/><path fill="#fff" d="M346.855 91.345h3.173c.267 0 .488.199.523.457l.005.071v3.173a.528.528 0 0 1-1.052.072l-.005-.072v-1.897l-3.151 3.152a.529.529 0 0 1-.799-.689l.051-.059 3.15-3.15h-1.895a.53.53 0 0 1-.524-.458l-.004-.072c0-.267.198-.489.456-.523zh3.173zm10.067-6.366a.53.53 0 0 1 .052.688l-.052.06-3.504 3.503h2.249c.268 0 .489.199.524.457l.005.072a.53.53 0 0 1-.457.523l-.072.005h-3.525a.53.53 0 0 1-.523-.457l-.005-.072v-3.524a.528.528 0 0 1 1.052-.072l.005.072v2.247l3.504-3.502a.53.53 0 0 1 .747 0"/><rect width="93" height="8" x="37" y="87" fill="#3c3c3c" rx="4"/><g clip-path="url(#clip1_9781_45975)"><path fill="#262626" d="M364 114H38v253.015h326z"/><path fill="#fff" d="m227.89 235.038-61.988 61.988-28.9-28.901-75.904 75.904H336.88zm-109.12-23.865c11.768 0 21.308-9.539 21.308-21.307s-9.54-21.308-21.308-21.308-21.308 9.54-21.308 21.308 9.54 21.307 21.308 21.307" opacity=".675"/></g></g><defs><clipPath id="clip0_9781_45975"><path fill="#fff" d="M0 0h400v300H0z"/></clipPath><clipPath id="clip1_9781_45975"><rect width="326" height="253.015" x="38" y="114" fill="#fff" rx="14.479"/></clipPath><pattern id="pattern0_9781_45975" width=".037" height=".049" patternContentUnits="objectBoundingBox"><use xlink:href="#image0_9781_45975" transform="scale(.00066 .00088)"/></pattern><image xlink:href="data:image/png;base64,iVBORw0KGgoAAAANSUhEUgAAADgAAAA4CAYAAACohjseAAAACXBIWXMAACxLAAAsSwGlPZapAAAAAXNSR0IArs4c6QAAAARnQU1BAACxjwv8YQUAAADdSURBVHgB7dmxDoMgFIXhCzEmbsbF9388F8PGAKHt6dSksvXaHHK+EQbzB0Sj4fFiA4s2OAWyUyA7BbJTIDsFslMgOwWyUyA7BbJTIDsFspvsBrVWO8/TSinWWrNlWWxdV5sm/8sH7w+/iDuO4x32KcZo+767R7pv0ZTSVxxgDKvqzT0w59ydw5b15h4YQujOXa3sr7kHzvPcncNh4809cNu2y1XEGE5Sb+GO32c4SXHY4H5EGFYV4UM8Jv5Nr2rsFMhOgewUyE6B7BTIToHsFMhOgewUyE6B7IYPfALcB0NZ5j6jXgAAAABJRU5ErkJggg==" id="image0_9781_45975" width="56" height="56" preserveAspectRatio="none"/></defs></svg>
